X:1
T: The Jolly Corkonian
C:
R:Jig
Q:180
K:Am
M:6/8
L:1/16
cB|A2F2D2 D2E2D2|A2G2A2 c2B2A2|G2E2C2 C2D2C2|E2D2C2 E2F2G2|A2F2D2 D2E2D2|A2G2A2 c2d2e2|d2c2A2 G2E2C2|D2E2D2 D4cB|
A2F2D2 D2E2D2|A2G2A2 c2B2A2|G2E2C2 C2D2C2|E2D2C2 E2F2G2|A2F2D2 D2E2D2|A2G2A2 c2d2e2|d2c2A2 G2E2C2|D2E2D2 D4A2|
d2e2d2 d2c2A2|d2c2d2 f2e2d2|c2d2c2 c2B2A2|G2A2B2 c2G2E2|d2e2d2 d2c2A2|d2e2f2 f2e2d2|c2B2A2 G2E2C2|D2E2D2 D4A2|
d2e2d2 d2c2A2|d2c2d2 f2e2d2|c2d2c2 c2B2A2|G2A2B2 c2G2E2|d2e2d2 d2c2A2|d2e2f2 f2e2d2|c2B2A2 G2E2C2|D2E2D2 D4||
